!!!COM: daughtry
!!!OTL: home
!!!RNB: hooktheoryid: ZdPoDAeAmnM
**kern	**text
*clefG2	*
*k[b-e-a-d-g-c-]	*
*M4/4	*
=1	=1
4..r	Gb
16d-	.
8dd-	.
16b	.
8.b-	.
8a-	.
=2	=2
8b	B
8b-	.
4g-	.
2r	.
=3	=3
2r	Gb
8g-	.
16g-	.
8g-	.
16g-	.
[8e-	.
=4	=4
4e-]	B
2.r	.
=5	=5
2r	Gb
8dd-	.
16b	.
8.b-	.
8a-	.
=6	=6
8.b	B
8.b-	.
4g-	.
4.r	.
=7	=7
8e-	Ebm
16g-	.
8.a-	.
8b-	.
8f	Db
16g-	.
8.f	.
16e-	.
[16e-	.
=8	=8
4e-]	B
2.r	.
*-	*-